!!!OTL: 375. Das boese Ding.
!!!ARE: Europa, Mitteleuropa, Deutschland, Dresden
!!!SCT: K2375A
!!!TXL: @@DE
!!!YEM: Copyright 1995, estate of Helmut Schaffrath.
**kern	**text
*clefG2	*
*M6/8	*
*k[f#]	*
*G:	*
{8d	Hat
=1	=1
4a	eins
8a	ge-
8g	-ſchlagen,
8g	.
8d	kommt
=2	=2
8a	immer
8a	.
8a	noch
4f#}	nicht.
{8d	Hat
=3	=3
4a	ʒwei
8a	ge-
8g	-ſchlagen,
8g	.
8d	kommt
=4	=4
8a	immer
8a	.
8a	noch
4f#}	nicht._etc.
{8d	Hat
=5	=5
4g	ʒehn
8g	ge-
8g	-ſchlagen,
8g	.
8g	da
=6	=6
4dd^^	ruckt's!
4.r}	.
{8d	Hat
=7	=7
4g	elf
8g	geſchlagen,
8g	.
8g	.
8g	da
=8	=8
4dd^^	ʒuckt's!
8r	.
4r}	.
{8d	Hat
=9	=9
4g	ʒwölf
8g	geſchlagen,
8g	.
8g	.
8g	da
=10	=10
4g^^	kommt's!
8r	.
4r}	.
==	==
!!!AGN: Kinder - Lied, Tanz -, Lauf - Spiel
!!!ONB: ESAC (Essen Associative Code) Database: KINDER
!!!AMT: compound duple
!!!AIN: vox
!!!EED: Helmut Schaffrath
!!!EEV: 1.0
!!Aus Dresden: 1870.
!!!GTL: Zweites Buch. Kinderspiel: 3. Lauf-, Sprung- und Haschenspiele.
!!@@COMMENT:"Der Spielreim wird zunehmend rascher und gegen das Ende hin mehr geschrien."
!!@@END:
!!!URL-scan: https://archive.org/details/DeutschesKinderliedUndKinderspiel/page/563/mode/1up
!!!ENC: Anna Maria Matuszewska
!!!EEV: 2024/05/09
*-	*-
